resources/icons/angular-module.svg

<?xml version="1.0" encoding="UTF-8"?>
<svg xmlns="http://www.w3.org/2000/svg" xmlns:xlink="http://www.w3.org/1999/xlink" width="16" height="16" viewBox="0 0 16 16" version="1.1">
<g id="surface1">
<path style=" stroke:none;fill-rule:nonzero;fill:rgb(89.803922%,22.352941%,20.784314%);fill-opacity:1;" d="M 8 1.667969 L 13.894531 3.765625 L 13 11.566406 L 8 14.332031 L 3 11.566406 L 2.105469 3.765625 L 8 1.667969 M 8 3.066406 L 4.3125 11.332031 L 5.6875 11.332031 L 6.425781 9.480469 L 9.558594 9.480469 L 10.300781 11.332031 L 11.667969 11.332031 L 8 3.066406 M 9.078125 8.332031 L 6.925781 8.332031 L 8 5.753906 Z M 9.078125 8.332031 "/>
</g>
</svg>

<svg xmlns="http://www.w3.org/2000/svg" width="16" height="16" viewBox="0 0 16 16"><path d="M8 1.668l5.895 2.098-.895 7.8-5 2.766-5-2.766-.895-7.8L8 1.668m0 1.398l-3.688 8.266h1.375l.739-1.852h3.133l.742 1.852h1.367L8 3.066m1.078 5.266H6.926L8 5.754zm0 0" fill="#e53935"/></svg>
